resources/icons/svg/uniview.svg

<svg xmlns="http://www.w3.org/2000/svg" xmlns:xlink="http://www.w3.org/1999/xlink" width="30" height="30" version="1">
  <defs>
    <linearGradient id="f">
      <stop offset="0" stop-color="#d3d3d1"/>
      <stop offset="1" stop-color="#6e706c"/>
    </linearGradient>
    <linearGradient id="e">
      <stop offset="0" stop-color="#9e6898"/>
      <stop offset="1" stop-color="#dcc8da"/>
    </linearGradient>
    <linearGradient id="a">
      <stop offset="0" stop-color="#f9a2a2"/>
      <stop offset="1" stop-color="#ef2929"/>
    </linearGradient>
    <linearGradient id="b">
      <stop offset="0" stop-color="#5a8fc7"/>
      <stop offset="1" stop-color="#bfd4ea"/>
    </linearGradient>
    <linearGradient id="c">
      <stop offset="0" stop-color="#7bdb1e"/>
      <stop offset="1" stop-color="#bbef89"/>
    </linearGradient>
    <linearGradient id="d">
      <stop offset="0" stop-color="#fee440"/>
      <stop offset="1" stop-color="#fda221"/>
    </linearGradient>
    <linearGradient xlink:href="#a" id="g" gradientUnits="userSpaceOnUse" gradientTransform="translate(-20 -6)" x1="23" y1="19" x2="27" y2="23"/>
    <linearGradient xlink:href="#a" id="h" gradientUnits="userSpaceOnUse" gradientTransform="translate(-20 -6)" x1="23" y1="19" x2="27" y2="23"/>
    <linearGradient xlink:href="#c" id="j" gradientUnits="userSpaceOnUse" gradientTransform="translate(0 4)" x1="7" y1="23" x2="3" y2="19"/>
    <linearGradient xlink:href="#c" id="k" gradientUnits="userSpaceOnUse" gradientTransform="translate(0 4)" x1="7" y1="23" x2="3" y2="19"/>
    <linearGradient xlink:href="#d" id="l" gradientUnits="userSpaceOnUse" gradientTransform="translate(10 -1)" x1="13" y1="4" x2="17" y2="8"/>
    <linearGradient xlink:href="#a" id="m" gradientUnits="userSpaceOnUse" gradientTransform="translate(-20 -6)" x1="23" y1="19" x2="27" y2="23"/>
    <linearGradient xlink:href="#d" id="n" gradientUnits="userSpaceOnUse" gradientTransform="translate(10 -1)" x1="13" y1="4" x2="17" y2="8"/>
    <linearGradient xlink:href="#d" id="o" gradientUnits="userSpaceOnUse" gradientTransform="translate(10 -1)" x1="13" y1="4" x2="17" y2="8"/>
    <linearGradient xlink:href="#b" id="i" gradientUnits="userSpaceOnUse" gradientTransform="translate(-10 4)" x1="17" y1="23" x2="13" y2="19"/>
  </defs>
  <path d="M11 1h8v8h-8V1z" fill="#a40000"/>
  <path d="M2 12h6v6H2v-6z" fill="url(#g)" transform="translate(10 -10)"/>
  <path d="M21 11h8v8h-8v-8z" fill="#a40000"/>
  <path d="M2 12h6v6H2v-6z" fill="url(#h)" transform="translate(20)"/>
  <path d="M1 21h8v8H1v-8z" fill="#204a87"/>
  <path d="M2 22h6v6H2v-6z" fill="url(#i)"/>
  <path d="M1 11h8v8H1v-8z" fill="#4e9a06"/>
  <path d="M2 22h6v6H2v-6z" fill="url(#j)" transform="translate(0 -10)"/>
  <path d="M11 21h8v8h-8v-8z" fill="#4e9a06"/>
  <path d="M2 22h6v6H2v-6z" fill="url(#k)" transform="translate(10)"/>
  <g>
    <path d="M11 11h8v8h-8v-8z" fill="#ce5c00"/>
    <path d="M22 2h6v6h-6V2z" fill="url(#l)" transform="translate(-10 10)"/>
  </g>
  <g>
    <path d="M21 1h8v8h-8V1z" fill="#a40000"/>
    <path d="M2 12h6v6H2v-6z" fill="url(#m)" transform="translate(20 -10)"/>
  </g>
  <g>
    <path d="M21 21h8v8h-8v-8z" fill="#ce5c00"/>
    <path d="M22 2h6v6h-6V2z" fill="url(#n)" transform="translate(0 20)"/>
  </g>
  <g>
    <path d="M1 1h8v8H1V1z" fill="#ce5c00"/>
    <path d="M22 2h6v6h-6V2z" fill="url(#o)" transform="translate(-20)"/>
  </g>
</svg>

<svg xmlns:svg="http://www.w3.org/2000/svg" xmlns="http://www.w3.org/2000/svg" xmlns:xlink="http://www.w3.org/1999/xlink" width="30" height="30" id="svg2" version="1"><defs id="defs4"><linearGradient id="linearGradient3245"><stop offset="0" id="stop3247" style="stop-color:#d3d3d1;stop-opacity:1"/><stop offset="1" id="stop3249" style="stop-color:#6e706c;stop-opacity:1"/></linearGradient><linearGradient id="linearGradient3237"><stop offset="0" id="stop3239" style="stop-color:#9e6898;stop-opacity:1"/><stop offset="1" id="stop3241" style="stop-color:#dcc8da;stop-opacity:1"/></linearGradient><linearGradient id="linearGradient3224"><stop offset="0" id="stop3226" style="stop-color:#f9a2a2;stop-opacity:1"/><stop offset="1" id="stop3228" style="stop-color:#ef2929;stop-opacity:1"/></linearGradient><linearGradient id="linearGradient3216"><stop offset="0" id="stop3218" style="stop-color:#5a8fc7;stop-opacity:1"/><stop offset="1" id="stop3220" style="stop-color:#bfd4ea;stop-opacity:1"/></linearGradient><linearGradient id="linearGradient3208"><stop offset="0" id="stop3210" style="stop-color:#7bdb1e;stop-opacity:1"/><stop offset="1" id="stop3212" style="stop-color:#bbef89;stop-opacity:1"/></linearGradient><linearGradient id="linearGradient3194"><stop offset="0" id="stop3196" style="stop-color:#fee440;stop-opacity:1"/><stop offset="1" id="stop3198" style="stop-color:#fda221;stop-opacity:1"/></linearGradient><linearGradient xlink:href="#linearGradient3224" id="linearGradient2418" gradientUnits="userSpaceOnUse" x1="23" y1="19" x2="27" y2="23" gradientTransform="translate(0,4)"/><linearGradient xlink:href="#linearGradient3216" id="linearGradient2421" gradientUnits="userSpaceOnUse" x1="17" y1="23" x2="13" y2="19" gradientTransform="translate(0,4)"/><linearGradient xlink:href="#linearGradient3208" id="linearGradient2424" gradientUnits="userSpaceOnUse" x1="7" y1="23" x2="3" y2="19" gradientTransform="translate(0,4)"/><linearGradient xlink:href="#linearGradient3194" id="linearGradient2441" gradientUnits="userSpaceOnUse" gradientTransform="translate(9.9999998,-1)" x1="13" y1="4" x2="17" y2="8"/><linearGradient xlink:href="#linearGradient3194" id="linearGradient2447" gradientUnits="userSpaceOnUse" gradientTransform="translate(0,-1)" x1="13" y1="4" x2="17" y2="8"/><linearGradient xlink:href="#linearGradient3194" id="linearGradient2453" gradientUnits="userSpaceOnUse" gradientTransform="translate(-10,-1)" x1="13" y1="4" x2="17" y2="8"/><linearGradient xlink:href="#linearGradient3194" id="linearGradient2459" gradientUnits="userSpaceOnUse" gradientTransform="translate(9.9999998,9)" x1="13" y1="4" x2="17" y2="8"/><linearGradient xlink:href="#linearGradient3237" id="linearGradient3243" x1="7" y1="17" x2="3" y2="13" gradientUnits="userSpaceOnUse" gradientTransform="translate(0,-10)"/><linearGradient xlink:href="#linearGradient3245" id="linearGradient3251" x1="13" y1="13" x2="17" y2="17" gradientUnits="userSpaceOnUse"/><linearGradient xlink:href="#linearGradient3208" id="linearGradient3257" gradientUnits="userSpaceOnUse" gradientTransform="translate(10,-16)" x1="7" y1="23" x2="3" y2="19"/><linearGradient xlink:href="#linearGradient3224" id="linearGradient3263" gradientUnits="userSpaceOnUse" gradientTransform="translate(-20,-6)" x1="23" y1="19" x2="27" y2="23"/><linearGradient xlink:href="#linearGradient3216" id="linearGradient3269" gradientUnits="userSpaceOnUse" gradientTransform="translate(10,-6)" x1="17" y1="23" x2="13" y2="19"/><linearGradient xlink:href="#linearGradient3245" id="linearGradient3307" gradientUnits="userSpaceOnUse" x1="13" y1="13" x2="17" y2="17"/><linearGradient xlink:href="#linearGradient3208" id="linearGradient3309" gradientUnits="userSpaceOnUse" gradientTransform="translate(0,4)" x1="7" y1="23" x2="3" y2="19"/><linearGradient xlink:href="#linearGradient3224" id="linearGradient3311" gradientUnits="userSpaceOnUse" gradientTransform="translate(-20,-6)" x1="23" y1="19" x2="27" y2="23"/><linearGradient xlink:href="#linearGradient3237" id="linearGradient3313" gradientUnits="userSpaceOnUse" gradientTransform="translate(0,-10)" x1="7" y1="17" x2="3" y2="13"/><linearGradient xlink:href="#linearGradient3194" id="linearGradient3315" gradientUnits="userSpaceOnUse" gradientTransform="translate(9.9999998,-1)" x1="13" y1="4" x2="17" y2="8"/><linearGradient xlink:href="#linearGradient3216" id="linearGradient3317" gradientUnits="userSpaceOnUse" gradientTransform="translate(10,-6)" x1="17" y1="23" x2="13" y2="19"/><linearGradient xlink:href="#linearGradient3245" id="linearGradient3325" gradientUnits="userSpaceOnUse" x1="13" y1="13" x2="17" y2="17"/><linearGradient xlink:href="#linearGradient3245" id="linearGradient3333" gradientUnits="userSpaceOnUse" x1="13" y1="13" x2="17" y2="17"/><linearGradient xlink:href="#linearGradient3245" id="linearGradient3341" gradientUnits="userSpaceOnUse" x1="13" y1="13" x2="17" y2="17"/><linearGradient xlink:href="#linearGradient3245" id="linearGradient3349" gradientUnits="userSpaceOnUse" x1="13" y1="13" x2="17" y2="17"/><linearGradient xlink:href="#linearGradient3224" id="linearGradient3357" gradientUnits="userSpaceOnUse" gradientTransform="translate(-20,-6)" x1="23" y1="19" x2="27" y2="23"/><linearGradient xlink:href="#linearGradient3224" id="linearGradient3365" gradientUnits="userSpaceOnUse" gradientTransform="translate(-20,-6)" x1="23" y1="19" x2="27" y2="23"/><linearGradient xlink:href="#linearGradient3224" id="linearGradient3373" gradientUnits="userSpaceOnUse" gradientTransform="translate(-20,-6)" x1="23" y1="19" x2="27" y2="23"/><linearGradient xlink:href="#linearGradient3224" id="linearGradient3381" gradientUnits="userSpaceOnUse" gradientTransform="translate(-20,-6)" x1="23" y1="19" x2="27" y2="23"/><linearGradient xlink:href="#linearGradient3194" id="linearGradient3389" gradientUnits="userSpaceOnUse" gradientTransform="translate(9.9999998,-1)" x1="13" y1="4" x2="17" y2="8"/><linearGradient xlink:href="#linearGradient3194" id="linearGradient3397" gradientUnits="userSpaceOnUse" gradientTransform="translate(9.9999998,-1)" x1="13" y1="4" x2="17" y2="8"/><linearGradient xlink:href="#linearGradient3194" id="linearGradient3405" gradientUnits="userSpaceOnUse" gradientTransform="translate(9.9999998,-1)" x1="13" y1="4" x2="17" y2="8"/><linearGradient xlink:href="#linearGradient3194" id="linearGradient3413" gradientUnits="userSpaceOnUse" gradientTransform="translate(9.9999998,-1)" x1="13" y1="4" x2="17" y2="8"/><linearGradient xlink:href="#linearGradient3194" id="linearGradient3421" gradientUnits="userSpaceOnUse" gradientTransform="translate(9.9999998,-1)" x1="13" y1="4" x2="17" y2="8"/><linearGradient xlink:href="#linearGradient3194" id="linearGradient3429" gradientUnits="userSpaceOnUse" gradientTransform="translate(9.9999998,-1)" x1="13" y1="4" x2="17" y2="8"/><linearGradient xlink:href="#linearGradient3194" id="linearGradient3437" gradientUnits="userSpaceOnUse" gradientTransform="translate(9.9999998,-1)" x1="13" y1="4" x2="17" y2="8"/><linearGradient xlink:href="#linearGradient3194" id="linearGradient3445" gradientUnits="userSpaceOnUse" gradientTransform="translate(9.9999998,-1)" x1="13" y1="4" x2="17" y2="8"/><linearGradient xlink:href="#linearGradient3237" id="linearGradient3453" gradientUnits="userSpaceOnUse" gradientTransform="translate(0,-10)" x1="7" y1="17" x2="3" y2="13"/><linearGradient xlink:href="#linearGradient3216" id="linearGradient3469" gradientUnits="userSpaceOnUse" gradientTransform="translate(0,-5)" x1="17" y1="23" x2="13" y2="19"/><linearGradient xlink:href="#linearGradient3208" id="linearGradient3477" gradientUnits="userSpaceOnUse" gradientTransform="translate(0,4)" x1="7" y1="23" x2="3" y2="19"/><linearGradient xlink:href="#linearGradient3208" id="linearGradient3485" gradientUnits="userSpaceOnUse" gradientTransform="translate(0,4)" x1="7" y1="23" x2="3" y2="19"/><linearGradient xlink:href="#linearGradient3194" id="linearGradient3493" gradientUnits="userSpaceOnUse" gradientTransform="translate(9.9999998,-1)" x1="13" y1="4" x2="17" y2="8"/><linearGradient xlink:href="#linearGradient3224" id="linearGradient3501" gradientUnits="userSpaceOnUse" gradientTransform="translate(-20,-6)" x1="23" y1="19" x2="27" y2="23"/><linearGradient xlink:href="#linearGradient3194" id="linearGradient3509" gradientUnits="userSpaceOnUse" gradientTransform="translate(9.9999998,-1)" x1="13" y1="4" x2="17" y2="8"/><linearGradient xlink:href="#linearGradient3194" id="linearGradient3517" gradientUnits="userSpaceOnUse" gradientTransform="translate(9.9999998,-1)" x1="13" y1="4" x2="17" y2="8"/><linearGradient xlink:href="#linearGradient3216" id="linearGradient3520" gradientUnits="userSpaceOnUse" gradientTransform="translate(-10,4)" x1="17" y1="23" x2="13" y2="19"/></defs><metadata id="metadata7"/><g id="layer1"><rect id="rect3465" width="6" height="0" x="16" y="12.5" ry="0" fill="#427bc3"/><g id="g3359" transform="translate(10,-10)"><path id="path3361" d="M1 11L9 11 9 19 1 19 1 11z" fill="#a40000"/><path id="path3363" d="M2 12L8 12 8 18 2 18 2 12z" fill="url(#linearGradient3365)"/></g><g id="g3367" transform="translate(20,0)"><path id="path3369" d="M1 11L9 11 9 19 1 19 1 11z" fill="#a40000"/><path id="path3371" d="M2 12L8 12 8 18 2 18 2 12z" fill="url(#linearGradient3373)"/></g><g id="g3523"><path id="path3465" d="M1 21L9 21 9 29 1 29 1 21z" fill="#204a87"/><path id="path3467" d="M2 22L8 22 8 28 2 28 2 22z" fill="url(#linearGradient3520)"/></g><g id="g3471" transform="translate(0,-10)"><path id="path3473" d="M1 21L9 21 9 29 1 29 1 21z" fill="#4e9a06"/><path id="path3475" d="M2 22L8 22 8 28 2 28 2 22z" fill="url(#linearGradient3477)"/></g><g id="g3479" transform="translate(10,0)"><path id="path3481" d="M1 21L9 21 9 29 1 29 1 21z" fill="#4e9a06"/><path id="path3483" d="M2 22L8 22 8 28 2 28 2 22z" fill="url(#linearGradient3485)"/></g><g id="g3487" transform="translate(-10,10)"><path id="path3489" d="M21 1L29 1 29 9 21 9 21 1z" fill="#ce5c00"/><path id="path3491" d="M22 2L28 2 28 8 22 8 22 2z" fill="url(#linearGradient3493)"/></g><g id="g3495" transform="translate(20,-10)"><path id="path3497" d="M1 11L9 11 9 19 1 19 1 11z" fill="#a40000"/><path id="path3499" d="M2 12L8 12 8 18 2 18 2 12z" fill="url(#linearGradient3501)"/></g><g id="g3503" transform="translate(0,20)"><path id="path3505" d="M21 1L29 1 29 9 21 9 21 1z" fill="#ce5c00"/><path id="path3507" d="M22 2L28 2 28 8 22 8 22 2z" fill="url(#linearGradient3509)"/></g><g id="g3511" transform="translate(-20,0)"><path id="path3513" d="M21 1L29 1 29 9 21 9 21 1z" fill="#ce5c00"/><path id="path3515" d="M22 2L28 2 28 8 22 8 22 2z" fill="url(#linearGradient3517)"/></g></g></svg>
